X:632
T:Lady Spellor
C:John Malchair's Third Collection of Tunes
F:https://www.vwml.org/record/Malchair/3619/p63
F:www.vwml.org/topics/historic-dance-and-tune-books/Malchair
Z:Eric Conrad Feb 2020
N:NB1 older notation - half notes in MS are stemless black notes.
N:NB2 repeats added
N:NB3 change time signature from C[ommon] (i.e. 6/4) to 6/8, with notes halved in length
% older notation - half notes in MS are stemless black notes.
M:6/8 % Barred as 6/4 but marked as common time in MS
L:1/8
K:Gmix
|: "_NB1,2,3"d2d d2d | d3 B3 | c2B c2d | e3 B3 |
A2A A2B | c2d e2f | g2d e2d | B3 G3 :|


